usr/share/icons/biglinux-icons-material-dark/16/actions/arrow-left-double.svg

<svg xmlns="http://www.w3.org/2000/svg" viewBox="0 0 16 16">
  <defs id="defs3051">
    <style type="text/css" id="current-color-scheme">
      .ColorScheme-Text {
        color:#dedede;
      }
      </style>
  </defs>
 <path style="fill:currentColor;fill-opacity:1;stroke:none" 
     d="M 3 2 L 3 14 L 4 14 L 4 2 L 3 2 z M 11.751953 2 L 7.453125 6.125 L 5.5 8 L 7.453125 9.875 L 11.751953 14 L 11.880859 13.875 L 12.271484 13.5 L 12.5 13.28125 L 8.203125 9.15625 L 6.9648438 8 L 8.203125 6.84375 L 12.5 2.71875 L 11.751953 2 z "
     class="ColorScheme-Text"
     />
</svg>

<svg xmlns="http://www.w3.org/2000/svg" viewBox="0 0 16 16">
<defs id="defs3051">
<style id="current-color-scheme" type="text/css">
.ColorScheme-Text{color:#dedede}
</style>
</defs>
<path d="M3 2v12h1V2zm8.752 0L7.453 6.125 5.5 8l1.953 1.875L11.752 14l.129-.125.39-.375.229-.219-4.297-4.125L6.965 8l1.238-1.156L12.5 2.719z" class="ColorScheme-Text" style="fill:currentColor;fill-opacity:1;stroke:none"/>
</svg>
